X: 13440
T: Flood On The Holm, The
R: reel
M: 4/4
K: Dmajor
AG|FDDF AD (3FGA|dAFd BGEG|FDDF AD (3FGA|dAGE FDDd|
ADDF ADFA|dAFd BGEF|DFEG FAGB|AFEG FDDc||
d2 AG FdAF|GBed cgfe|dAAG FAde|(3fgf ec d2 (3gfe|
d2 AG FdAF|GBed cgfe|dBcA BdAF|GBAG FDDg||
faaf dAFA|GBed ceag|(3fgf af dAFA|GBec dDDg|
faaf dAFA|GBed ceag|fdge afbg|fdec dgfe||
d2 AG FdAF|GBed cgfe|dAAG FAde|(3fgf ec d2 (3gfe|
d2 AG FdAF|GBed cgfe|dBcA BdAF|GBAG FDDG||

